images/play-icon.svg

<?xml version="1.0" encoding="UTF-8"?>
<svg width="51px" height="52px" viewBox="0 0 51 52" version="1.1" xmlns="http://www.w3.org/2000/svg" xmlns:xlink="http://www.w3.org/1999/xlink">
    <!-- Generator: Sketch 48.2 (47327) - http://www.bohemiancoding.com/sketch -->
    <title>Page 1</title>
    <desc>Created with Sketch.</desc>
    <defs></defs>
    <g id="White-Landing--Copy-7" stroke="none" stroke-width="1" fill="none" fill-rule="evenodd" transform="translate(-810.000000, -655.000000)">
        <g id="Group-31" transform="translate(-88.000000, -410.000000)" fill="#046FD7">
            <g id="Group-11" transform="translate(347.000000, 896.000000)">
                <g id="Group-29">
                    <g id="Group-26">
                        <g id="Group-10" transform="translate(297.000000, 159.000000)">
                            <g id="Group-25">
                                <path d="M279.583885,10.4104918 C265.612259,10.4104918 254.285468,21.8041967 254.285468,35.8583607 C254.285468,49.9125246 265.612259,61.3062295 279.583885,61.3062295 C293.555511,61.3062295 304.882302,49.9125246 304.882302,35.8583607 C304.882302,21.8041967 293.555511,10.4104918 279.583885,10.4104918 Z M290.640443,34.968842 L290.651942,34.9549613 L290.448405,34.8381325 C290.418507,34.8242518 290.393209,34.8011174 290.362161,34.7883934 L274.55295,25.7011908 L274.54145,25.7150715 C274.344813,25.5566007 274.105628,25.4478689 273.834245,25.4478689 C273.199484,25.4478689 272.684317,25.9649233 272.684317,26.6045902 L272.684317,45.1121311 C272.684317,45.751798 273.199484,46.2688525 273.834245,46.2688525 C274.105628,46.2688525 274.344813,46.1601207 274.54145,46.0028066 L274.55295,46.0155305 L290.362161,36.9283279 C290.393209,36.9156039 290.417357,36.8959397 290.447255,36.8797456 L290.651942,36.76176 L290.640443,36.7490361 C290.903777,36.5361993 291.083165,36.2238846 291.083165,35.8583607 C291.083165,35.4928367 290.903777,35.180522 290.640443,34.968842 Z" id="Page-1"></path>
                            </g>
                        </g>
                    </g>
                </g>
            </g>
        </g>
    </g>
</svg>

<?xml version="1.0" encoding="UTF-8"?>
<svg version="1.1" viewBox="0 0 51 52" xmlns="http://www.w3.org/2000/svg">
    <title>Page 1</title>
    <desc>Created with Sketch.</desc>
    <g transform="translate(-810 -655)" fill="none" fill-rule="evenodd">
        <g transform="translate(-88 -410)" fill="#046FD7">
            <g transform="translate(347 896)">
                <g transform="translate(297 159)">
                    <path d="m279.58 10.41c-13.972 0-25.298 11.394-25.298 25.448 0 14.054 11.327 25.448 25.298 25.448s25.298-11.394 25.298-25.448c0-14.054-11.327-25.448-25.298-25.448zm11.057 24.558l0.011499-0.013881-0.20354-0.11683c-0.029898-0.013881-0.055196-0.037015-0.086244-0.049739l-15.809-9.0872-0.0115 0.013881c-0.19664-0.15847-0.43582-0.2672-0.7072-0.2672-0.63476 0-1.1499 0.51705-1.1499 1.1567v18.508c0 0.63967 0.51517 1.1567 1.1499 1.1567 0.27138 0 0.51057-0.10873 0.7072-0.26605l0.0115 0.012724 15.809-9.0872c0.031048-0.012724 0.055196-0.032388 0.085094-0.048582l0.20469-0.11799-0.011499-0.012724c0.26333-0.21284 0.44272-0.52515 0.44272-0.89068 0-0.36552-0.17939-0.67784-0.44272-0.88952z"/>
                </g>
            </g>
        </g>
    </g>
</svg>
